X:1
T:91
L:1/8
Q:1/4=100
M:4/4
K:C
V:1 treble nm="Piano" snm="Pno."
V:1
!p!"^Moderato" G2 E2 C2 E2 | F2 G2 F2 !breath!D2 | E2 G2 c2 G2 | F2 G2 B2 !breath!G2 | %4
 E2 G2 D2 G2 | C2 E2 F2 !breath!D2 | E2 G2 D2 F2 | E2 D2 C2 z2 |] %8

